categories/16/applications-education.svg

<?xml version="1.0" encoding="UTF-8" standalone="no"?>
<svg
   xmlns:dc="http://purl.org/dc/elements/1.1/"
   xmlns:cc="http://creativecommons.org/ns#"
   xmlns:rdf="http://www.w3.org/1999/02/22-rdf-syntax-ns#"
   xmlns:svg="http://www.w3.org/2000/svg"
   xmlns="http://www.w3.org/2000/svg"
   xmlns:sodipodi="http://sodipodi.sourceforge.net/DTD/sodipodi-0.dtd"
   xmlns:inkscape="http://www.inkscape.org/namespaces/inkscape"
   height="16"
   width="16"
   version="1.1"
   id="svg6"
   sodipodi:docname="applications-education-symbolic.svg"
   inkscape:version="0.92.3 (2405546, 2018-03-11)">
  <metadata
     id="metadata12">
    <rdf:RDF>
      <cc:Work
         rdf:about="">
        <dc:format>image/svg+xml</dc:format>
        <dc:type
           rdf:resource="http://purl.org/dc/dcmitype/StillImage" />
      </cc:Work>
    </rdf:RDF>
  </metadata>
  <defs
     id="defs10" />
  <sodipodi:namedview
     pagecolor="#808080"
     bordercolor="#808080666"
     borderopacity="1"
     objecttolerance="10"
     gridtolerance="10"
     guidetolerance="10"
     inkscape:pageopacity="0"
     inkscape:pageshadow="2"
     inkscape:window-width="1356"
     inkscape:window-height="987"
     id="namedview8"
     showgrid="false"
     inkscape:zoom="14.75"
     inkscape:cx="8"
     inkscape:cy="8"
     inkscape:window-x="0"
     inkscape:window-y="34"
     inkscape:window-maximized="0"
     inkscape:current-layer="svg6" />
  <g
     transform="translate(-912 -464)"
     id="g4"
     style="fill:#808080;fill-opacity:1">
    <path
       d="M920.229 465.084l-4.006 3a.5.5 0 0 0 .277.916h.5v2h-3.5c-.277 0-.5.223-.5.5v6c0 .277.223.5.5.5h5c.277 0 .5-.223.5-.5V475s0-1 1-1h1c1 0 1 1 1 1v2.5c0 .277.223.5.5.5h5c.277 0 .5-.223.5-.5v-6c0-.277-.223-.5-.5-.5H924v-2h.5a.5.5 0 0 0 .277-.916l-3.994-3a.5.5 0 0 0-.555 0zM918.25 469h.5a.25.25 0 0 1 .25.25v1.5a.25.25 0 0 1-.25.25h-.5a.25.25 0 0 1-.25-.25v-1.5a.25.25 0 0 1 .25-.25zm2 0h.5a.25.25 0 0 1 .25.25v1.5a.25.25 0 0 1-.25.25h-.5a.25.25 0 0 1-.25-.25v-1.5a.25.25 0 0 1 .25-.25zm2 0h.5a.25.25 0 0 1 .25.25v1.5a.25.25 0 0 1-.25.25h-.5a.25.25 0 0 1-.25-.25v-1.5a.25.25 0 0 1 .25-.25zm-8 3h.5a.25.25 0 0 1 .25.25v1.5a.25.25 0 0 1-.25.25h-.5a.25.25 0 0 1-.25-.25v-1.5a.25.25 0 0 1 .25-.25zm2 0h.5a.25.25 0 0 1 .25.25v1.5a.25.25 0 0 1-.25.25h-.5a.25.25 0 0 1-.25-.25v-1.5a.25.25 0 0 1 .25-.25zm8 0h.5a.25.25 0 0 1 .25.25v1.5a.25.25 0 0 1-.25.25h-.5a.25.25 0 0 1-.25-.25v-1.5a.25.25 0 0 1 .25-.25zm2 0h.5a.25.25 0 0 1 .25.25v1.5a.25.25 0 0 1-.25.25h-.5a.25.25 0 0 1-.25-.25v-1.5a.25.25 0 0 1 .25-.25zm-12 3h.5a.25.25 0 0 1 .25.25v1.5a.25.25 0 0 1-.25.25h-.5a.25.25 0 0 1-.25-.25v-1.5a.25.25 0 0 1 .25-.25zm2 0h.5a.25.25 0 0 1 .25.25v1.5a.25.25 0 0 1-.25.25h-.5a.25.25 0 0 1-.25-.25v-1.5a.25.25 0 0 1 .25-.25zm8 0h.5a.25.25 0 0 1 .25.25v1.5a.25.25 0 0 1-.25.25h-.5a.25.25 0 0 1-.25-.25v-1.5a.25.25 0 0 1 .25-.25zm2 0h.5a.25.25 0 0 1 .25.25v1.5a.25.25 0 0 1-.25.25h-.5a.25.25 0 0 1-.25-.25v-1.5a.25.25 0 0 1 .25-.25z"
       fill="#808080"
       id="path2"
       style="fill:#808080;fill-opacity:1" />
  </g>
</svg>

<svg xmlns="http://www.w3.org/2000/svg" width="16" height="16" version="1.1">
 <g style="fill:#808080" transform="translate(-912,-464)">
  <path style="fill:#808080" d="M 920.23,465.08 916.22,468.08 A 0.5,0.5 0 0 0 916.5,469 H 917 V 471 H 913.5 C 913.22,471 913,471.22 913,471.5 V 477.5 C 913,477.78 913.22,478 913.5,478 H 918.5 C 918.78,478 919,477.78 919,477.5 V 475 C 919,475 919,474 920,474 H 921 C 922,474 922,475 922,475 V 477.5 C 922,477.78 922.22,478 922.5,478 H 927.5 C 927.78,478 928,477.78 928,477.5 V 471.5 C 928,471.22 927.78,471 927.5,471 H 924 V 469 H 924.5 A 0.5,0.5 0 0 0 924.78,468.08 L 920.78,465.08 A 0.5,0.5 0 0 0 920.23,465.08 Z M 918.25,469 H 918.75 A 0.25,0.25 0 0 1 919,469.25 V 470.75 A 0.25,0.25 0 0 1 918.75,471 H 918.25 A 0.25,0.25 0 0 1 918,470.75 V 469.25 A 0.25,0.25 0 0 1 918.25,469 Z M 920.25,469 H 920.75 A 0.25,0.25 0 0 1 921,469.25 V 470.75 A 0.25,0.25 0 0 1 920.75,471 H 920.25 A 0.25,0.25 0 0 1 920,470.75 V 469.25 A 0.25,0.25 0 0 1 920.25,469 Z M 922.25,469 H 922.75 A 0.25,0.25 0 0 1 923,469.25 V 470.75 A 0.25,0.25 0 0 1 922.75,471 H 922.25 A 0.25,0.25 0 0 1 922,470.75 V 469.25 A 0.25,0.25 0 0 1 922.25,469 Z M 914.25,472 H 914.75 A 0.25,0.25 0 0 1 915,472.25 V 473.75 A 0.25,0.25 0 0 1 914.75,474 H 914.25 A 0.25,0.25 0 0 1 914,473.75 V 472.25 A 0.25,0.25 0 0 1 914.25,472 Z M 916.25,472 H 916.75 A 0.25,0.25 0 0 1 917,472.25 V 473.75 A 0.25,0.25 0 0 1 916.75,474 H 916.25 A 0.25,0.25 0 0 1 916,473.75 V 472.25 A 0.25,0.25 0 0 1 916.25,472 Z M 924.25,472 H 924.75 A 0.25,0.25 0 0 1 925,472.25 V 473.75 A 0.25,0.25 0 0 1 924.75,474 H 924.25 A 0.25,0.25 0 0 1 924,473.75 V 472.25 A 0.25,0.25 0 0 1 924.25,472 Z M 926.25,472 H 926.75 A 0.25,0.25 0 0 1 927,472.25 V 473.75 A 0.25,0.25 0 0 1 926.75,474 H 926.25 A 0.25,0.25 0 0 1 926,473.75 V 472.25 A 0.25,0.25 0 0 1 926.25,472 Z M 914.25,475 H 914.75 A 0.25,0.25 0 0 1 915,475.25 V 476.75 A 0.25,0.25 0 0 1 914.75,477 H 914.25 A 0.25,0.25 0 0 1 914,476.75 V 475.25 A 0.25,0.25 0 0 1 914.25,475 Z M 916.25,475 H 916.75 A 0.25,0.25 0 0 1 917,475.25 V 476.75 A 0.25,0.25 0 0 1 916.75,477 H 916.25 A 0.25,0.25 0 0 1 916,476.75 V 475.25 A 0.25,0.25 0 0 1 916.25,475 Z M 924.25,475 H 924.75 A 0.25,0.25 0 0 1 925,475.25 V 476.75 A 0.25,0.25 0 0 1 924.75,477 H 924.25 A 0.25,0.25 0 0 1 924,476.75 V 475.25 A 0.25,0.25 0 0 1 924.25,475 Z M 926.25,475 H 926.75 A 0.25,0.25 0 0 1 927,475.25 V 476.75 A 0.25,0.25 0 0 1 926.75,477 H 926.25 A 0.25,0.25 0 0 1 926,476.75 V 475.25 A 0.25,0.25 0 0 1 926.25,475 Z"/>
 </g>
</svg>
